svg/decimal_comma_decrease.svg

<svg xmlns="http://www.w3.org/2000/svg" viewBox="0 0 24 24"><path d="M5 13v3H4l-1-3a1 1 0 0 1 2 0m10 3v-2l-3 3 3 3v-2h6v-2m-9-5a3 3 0 0 1-6 0V8a3 3 0 0 1 6 0m-2 0a1 1 0 0 0-2 0v3a1 1 0 0 0 2 0Z"/></svg>

<?xml version="1.0" encoding="UTF-8"?><!DOCTYPE svg PUBLIC "-//W3C//DTD SVG 1.1//EN" "http://www.w3.org/Graphics/SVG/1.1/DTD/svg11.dtd"><svg xmlns="http://www.w3.org/2000/svg" xmlns:xlink="http://www.w3.org/1999/xlink" version="1.1" id="mdi-decimal-comma-decrease" width="24" height="24" viewBox="0 0 24 24"><path d="M5 13V16H4L3 13A1 1 0 0 1 5 13M15 16V14L12 17L15 20V18H21V16M12 11A3 3 0 0 1 6 11V8A3 3 0 0 1 12 8M10 8A1 1 0 0 0 8 8V11A1 1 0 0 0 10 11Z" /></svg>
